X: 5
T: Sappu Kirvusta
M: 2/4
L: 1/8
P: 10x (D2G2D2G2D2)
K: D
P: D:
|: "D"de fg | a2 d2 |1 "A7"ce Bc | dc BA :|2 "A7"ce fe | "D"d2 z2 ||
|: "D"a3 f | a3 f | "Em"eg b2 | e3 d | "A7"c2 b2 | a2 g2 |1 f2 e2 | "D"dB Ad :|2 "D" dd/d/ "G"dd | "D"d2 z2 |]
P: G:
K: G
|: "G"GA Bc | d2 G2 |1 "D7"FA EF | GF ED :|2 "D7"FA BA | "G"G2 z2 ||
|: "G"d3 B | d3 B | "Am"Ac e2 | A3 G | "D7"F2 e2 | d2 c2 |1 B2 A2 | "G"GE DG :|2 "G" GG/G/ "C"GG | "G"G2 z2 |]
%%sep 5 5 200

